libs/ui/packages/crypto-icons/src/svg/ADX.svg

<svg width="24" height="24" viewBox="0 0 24 24" fill="none">
<path fill-rule="evenodd" clip-rule="evenodd" d="M8.69025 6.4515L12 9.906L15.2288 6.4515L17.25 8.52L13.953 12L17.25 15.4523L15.2288 17.547L12 14.094L8.69025 17.547L6.75 15.51L10.02 11.9805L6.75 8.52L8.69025 6.45225V6.4515ZM8.9565 6.1695L11.9865 3L15.0165 6.1695L13.422 7.86825L11.9865 6.28275L10.551 7.86825L8.9565 6.1695ZM8.9565 17.8305L10.551 16.1318L11.9865 17.7172L13.422 16.1318L15.0165 17.8305L11.9865 21L8.9565 17.8305Z" fill="#1B75BC"/>
</svg>

<svg width="24" height="24" viewBox="0 0 24 24" fill="none"><path fill="#1b75bc" fill-rule="evenodd" d="M8.69 6.452 12 9.906l3.229-3.455L17.25 8.52 13.953 12l3.297 3.452-2.021 2.095L12 14.094l-3.31 3.453-1.94-2.037 3.27-3.53-3.27-3.46zm.267-.282L11.987 3l3.03 3.17-1.595 1.698-1.436-1.585-1.435 1.585zm0 11.66 1.594-1.698 1.435 1.585 1.436-1.585 1.595 1.698-3.03 3.17z" clip-rule="evenodd"/></svg>
